X: 9
T:Morning Star, Bledington 1
M:4/4
L:1/8
A:Bledington
P:A(AB)4
K:F
P:A
|:ABAF D2EF|GAGE C2FG|ABAG D2GE|C2F2 F4:|
P:B
|:A2A2 c2c2|dfed cBAG|FGAB c2c2|defd c4 |
  A2AB c2c2|dfed cAF2|GABG EFGE|C2F2 F4:|

